X:1
T:The Gobby O -- Jig (or Jefferson and Liberty)
R:jig
B:Ryan's Mammoth Collection
N: 85 434
Z: Contributed by Ray Davies,  ray:davies99.freeserve.co.uk
M:6/8
L:1/8
K:Am
A/B/|\
c2A A^GA | E2A ABc | B2G GBc | dBG GAB |
c2A A^GA | E2A A2e | edc BAB | E2A A2:|
|:c|\
A2B c2d | e2f g3  | e2f g2e | dBG G2E |
A2B c2d | efg a3  | edc BAB | E2A A2:|
